_includes/icon-moleskin.svg

<svg class="i-moleskin" viewBox="0 0 32 32" fill="none" stroke="currentcolor" stroke-linecap="round" stroke-linejoin="round" stroke-width="6.25%"><path d="M2 6v24h28V6zm0 16h28M7 3v6m6-6v6m6-6v6m6-6v6"/></svg>

<svg class="i-moleskin" viewBox="0 0 32 32" fill="none" stroke="currentcolor" stroke-linecap="round" stroke-linejoin="round" stroke-width="6.25%"><path d="M2 6 L2 30 30 30 30 6 Z M2 22 L30 22 M7 3 L7 9 M13 3 L13 9 M19 3 L19 9 M25 3 L25 9" /></svg>
